packages/webapp/public/images/template-logos/eventbrite.svg

<svg width="62" height="62" viewBox="0 0 62 62" fill="none" xmlns="http://www.w3.org/2000/svg">
<rect width="62" height="62" rx="10" fill="#F05537"/>
<path d="M28.3432 19.1873C33.2144 18.1048 38.0857 20.0894 40.7919 23.8781L19.2623 28.7493C19.984 24.1187 23.472 20.2698 28.3432 19.1873ZM40.9122 37.0484C39.2283 39.5141 36.6423 41.2581 33.6956 41.9197C28.8243 43.0022 23.893 41.0176 21.1868 37.1687L42.7765 32.2975L46.2645 31.5157L53 30.0122C52.9399 28.5689 52.7594 27.1256 52.4588 25.7424C49.7525 14.1357 37.9052 6.85894 26.058 9.56517C14.2107 12.2714 6.81366 23.818 9.58003 35.4848C12.3464 47.1517 24.1335 54.3683 35.9808 51.6621C42.9569 50.0985 48.3693 45.4077 51.1357 39.454L40.9122 37.0484Z" fill="white"/>
</svg>

<svg xmlns="http://www.w3.org/2000/svg" width="62" height="62" fill="none"><path d="M28.343 19.187c4.871-1.082 9.743.902 12.449 4.691l-21.53 4.871c.722-4.631 4.21-8.48 9.081-9.562zm12.569 17.861a11.89 11.89 0 0 1-7.217 4.871c-4.871 1.083-9.803-.902-12.509-4.751l21.59-4.871 3.488-.782L53 30.012a25.13 25.13 0 0 0-.541-4.27C49.753 14.136 37.905 6.859 26.058 9.565S6.814 23.818 9.58 35.485s14.553 18.883 26.401 16.177a21.96 21.96 0 0 0 15.155-12.208l-10.224-2.406z" fill="#fff"/></svg>
